X:1
T:Title
%%score { ( 1 3 ) | 2 }
L:1/8
M:6/8
K:C
V:1 treble nm="Grand Piano"
V:3 treble 
V:2 bass 
V:1
 z3 z2[Q:1/4=100] E | E2 E E2 [G,DF] | [CEG]3 [EGc]2 [CGc] | [CAc]2 [CFA] [CAc]2 [CFA] | %4
[M:5/8] [CEG]-[CEG]- [CEG]3 |[M:1/8] [G,DF] |[M:3/4] [G,CE]2 [G,CE] [G,CE]2 [G,DF] | %7
 [CEG]3 [EGc]2 [EGc] | [GB]2 [^FA] [Fc]2 [CDF] |[M:5/8] [B,DG]-[B,DG]- [B,DG]3 |[M:1/8] G | %11
[M:3/4] d2 d d2 B | [Ec]3 [EG]2 [EG] | z2 z d z2 |[M:5/8] [EG]-[EG]- [EG]3 |[M:1/8] [EG] | %16
[M:3/4] [Ge]2 [Ge] [Ge]2 [Gc] |[M:7/8] c3 A3 A |[M:3/4] G2 c d2 [Ec] |[M:5/8] [Ec]-[Ec]- [Ec]3 |] %20
V:2
 z3 z2 [C,G,C] | [C,G,C]2 [C,G,C] [C,G,C]2 C, | C,3 C,2 C, | F,2 F, F,2 F, |[M:5/8] C,-C,- C,3 | %5
[M:1/8] B,, |[M:3/4] C,2 C, C,2 C, | C,3 C,2 C, | [D,D]2 [D,D] [D,A,]2 D, |[M:5/8] G,,-G,,- G,,3 | %10
[M:1/8][K:treble] [G,B,D] |[M:3/4] [G,B,F]2 [G,B,F] [G,B,F]2 [G,DF] | [C,C]3 [C,C]2 [C,C] | %13
 [F,C]2 [F,C] [F,C]2 [F,CF] |[M:5/8] [C,C]-[C,C]- [C,C]3 |[M:1/8] [C,C] | %16
[M:3/4] [C,C]2 [C,C] [C,C]2 [C,_B,] |[M:7/8][K:treble] [F,A,F]3 [F,CF]3 [F,CF] | %18
[M:3/4] [G,CE]2 [G,CE] [G,B,F]2[K:bass] [C,C] |[M:5/8] [C,C]-[C,C]- [C,C]3 |] %20
V:3
 x6 | x6 | x6 | x6 |[M:5/8] x5 |[M:1/8] x |[M:3/4] x6 | x6 | x6 |[M:5/8] x5 |[M:1/8] x | %11
[M:3/4] x6 | x6 | [FA]2 [Ac]A- [Ac]A |[M:5/8] x5 |[M:1/8] x |[M:3/4] x6 |[M:7/8] x7 |[M:3/4] x6 | %19
[M:5/8] x5 |] %20

